packages/gestalt-icons-android/vr-theme/ic_vr_mobile_gestalt.svg

<svg width="24" height="24" viewBox="0 0 24 24" fill="none" xmlns="http://www.w3.org/2000/svg">
<path fill-rule="evenodd" clip-rule="evenodd" d="M20 20C20 22.2091 18.2091 24 16 24H8C5.79086 24 4 22.2091 4 20V4C4 1.79086 5.79086 0 8 0H16C18.2091 0 20 1.79086 20 4V20ZM16 2H8C6.89543 2 6 2.89543 6 4H6.99836C6.99891 4 6.99945 4 7 4H17C16.9998 4 17.0002 4 17 4H18C18 2.89543 17.1046 2 16 2ZM6 20C6 21.1046 6.89543 22 8 22H16C17.1046 22 18 21.1046 18 20H6ZM7 6C6.44772 6 6 6.44772 6 7V17C6 17.5523 6.44772 18 7 18H17C17.5523 18 18 17.5523 18 17V7C18 6.44772 17.5523 6 17 6H7Z" fill="black"/>
</svg>

<svg xmlns="http://www.w3.org/2000/svg" width="24" height="24"><path d="M20 20a4 4 0 0 1-4 4H8a4 4 0 0 1-4-4V4a4 4 0 0 1 4-4h8a4 4 0 0 1 4 4zM16 2H8a2 2 0 0 0-2 2h12a2 2 0 0 0-2-2M6 20c0 1.1.9 2 2 2h8a2 2 0 0 0 2-2zM7 6a1 1 0 0 0-1 1v10a1 1 0 0 0 1 1h10a1 1 0 0 0 1-1V7a1 1 0 0 0-1-1z"/></svg>
